src/svgs/security-1.svg

<svg xmlns="http://www.w3.org/2000/svg" viewBox="0 0 24 24" width="512" height="512" aria-labelledby="itsecurity-1-desc itsecurity-1-title"><title id="itsecurity-1-title">Security Icon</title><desc id="itsecurity-1-desc">A picture depicting a shield-protected briefcase.</desc><path d="M12 13h2c-.194 1.505-.641 2.58-2 3zm-2-2v2h2v-3zm12-3v10a1.993 1.993 0 01-2 2H4a1.993 1.993 0 01-2-2l.01-10A1.985 1.985 0 014 6h4V4a1.993 1.993 0 012-2h4a1.993 1.993 0 012 2v2h4a1.993 1.993 0 012 2zM10 6h4V4h-4zm6 4l-4-2-4 2v2.146C8 14.612 9.707 17.44 12 18c2.293-.56 4-3.388 4-5.854z"/></svg>

<svg xmlns="http://www.w3.org/2000/svg" viewBox="0 0 24 24"><path d="M12,13h2c-.194,1.505-.641,2.58-2,3Zm-2-2v2h2V10ZM22,8V18a1.993,1.993,0,0,1-2,2H4a1.993,1.993,0,0,1-2-2L2.01,8A1.985,1.985,0,0,1,4,6H8V4a1.993,1.993,0,0,1,2-2h4a1.993,1.993,0,0,1,2,2V6h4A1.993,1.993,0,0,1,22,8ZM10,6h4V4H10Zm6,4L12,8,8,10v2.146C8,14.612,9.707,17.44,12,18c2.293-.56,4-3.388,4-5.854Z"/></svg>
